(Generated with: DXF2GCODE, Version: Py3.7.10 PyQt5.10.1, Date: $Date: Fri Oct 25 20:45:56 2019 +0200 $)
(Created from file: /home/lucas/2.dxf)
(Output format description: G-CODE for LinuxCNC)
(Time: Wed Jul 14 17:42:28 2021)
G21 (Units in millimeters)
G90 (Absolute programming)
G64 (Default cutting) G17 (XY plane) G40 (Cancel radius comp.) G49 (Cancel length comp.)
G0 Z 100.000 

(*** LAYER: 0 ***)
T1 M6
S6000

(* SHAPE Nr: 0 *)
G0 X -28.221 Y  81.245
M3 M8
G0 Z  30.000 
F150
G1 Z  30.000
F400
G1 X -28.221 Y  86.007
G1 X -28.218 Y  86.084
G1 X -28.209 Y  86.161
G1 X -28.195 Y  86.236
G1 X -28.174 Y  86.311
G1 X -28.148 Y  86.383
G1 X -28.116 Y  86.454
G1 X -23.354 Y  95.978
G1 X -23.315 Y  96.048
G1 X -23.271 Y  96.115
G1 X -23.221 Y  96.178
G1 X -23.166 Y  96.238
G1 X -18.405 Y 100.999
G1 X -18.346 Y 101.054
G1 X -18.282 Y 101.104
G1 X -18.215 Y 101.148
G1 X -18.145 Y 101.187
G1 X  -8.621 Y 105.949
G1 X  -8.550 Y 105.981
G1 X  -8.478 Y 106.007
G1 X  -8.403 Y 106.027
G1 X  -8.328 Y 106.042
G1 X  -8.251 Y 106.051
G1 X  -8.174 Y 106.054
G1 X  10.874 Y 106.054
G1 X  10.951 Y 106.051
G1 X  11.028 Y 106.042
G1 X  11.104 Y 106.027
G1 X  11.178 Y 106.007
G1 X  11.251 Y 105.981
G1 X  11.321 Y 105.949
G1 X  20.845 Y 101.187
G1 X  20.915 Y 101.148
G1 X  20.983 Y 101.104
G1 X  21.046 Y 101.054
G1 X  21.105 Y 100.999
G1 X  25.867 Y  96.238
G1 X  25.921 Y  96.178
G1 X  25.971 Y  96.115
G1 X  26.015 Y  96.048
G1 X  26.054 Y  95.978
G1 X  30.816 Y  86.454
G1 X  30.848 Y  86.383
G1 X  30.874 Y  86.311
G1 X  30.895 Y  86.236
G1 X  30.910 Y  86.161
G1 X  30.919 Y  86.084
G1 X  30.922 Y  86.007
G1 X  30.922 Y  76.483
G1 X  30.919 Y  76.406
G1 X  30.910 Y  76.329
G1 X  30.895 Y  76.253
G1 X  30.874 Y  76.179
G1 X  30.848 Y  76.106
G1 X  30.816 Y  76.036
G1 X  26.054 Y  66.512
G1 X  26.025 Y  66.457
G1 X  25.992 Y  66.404
G1 X  16.468 Y  52.119
G1 X  16.430 Y  52.065
G1 X  16.388 Y  52.014
G1 X  16.343 Y  51.966
G1 X -29.569 Y   6.054
G1 X  34.683 Y   6.054
F150
G1 Z  30.000
G0 Z 100.000 
M9 M5
G0 X   0.000 Y   0.000
M2 (Program end)