(Generated with: DXF2GCODE, Version: Py3.7.10 PyQt5.10.1, Date: $Date: Fri Oct 25 20:45:56 2019 +0200 $)
(Created from file: /home/lucas/5.dxf)
(Output format description: G-CODE for LinuxCNC)
(Time: Thu Jul 15 10:47:51 2021)
G21 (Units in millimeters)
G90 (Absolute programming)
G64 (Default cutting) G17 (XY plane) G40 (Cancel radius comp.) G49 (Cancel length comp.)
G0 Z 100.000 

(*** LAYER: 0 ***)
T1 M6
S6000

(* SHAPE Nr: 0 *)
G0 X -21.295 Y 101.825
M3 M8
G0 Z  30.000 
F150
G1 Z  30.000
F400
G1 X -26.963 Y  49.582
G1 X -24.209 Y  52.336
G1 X -24.152 Y  52.389
G1 X -24.091 Y  52.437
G1 X -24.027 Y  52.480
G1 X -23.960 Y  52.518
G1 X -23.890 Y  52.551
G1 X -23.818 Y  52.578
G1 X  -9.532 Y  57.340
G1 X  -9.455 Y  57.362
G1 X  -9.376 Y  57.378
G1 X  -9.296 Y  57.388
G1 X  -9.216 Y  57.391
G1 X   5.070 Y  57.391
G1 X   5.150 Y  57.388
G1 X   5.230 Y  57.378
G1 X   5.309 Y  57.362
G1 X   5.386 Y  57.340
G1 X  19.672 Y  52.578
G1 X  19.744 Y  52.551
G1 X  19.814 Y  52.518
G1 X  19.881 Y  52.480
G1 X  19.946 Y  52.437
G1 X  20.006 Y  52.389
G1 X  20.063 Y  52.336
G1 X  29.587 Y  42.813
G1 X  29.639 Y  42.756
G1 X  29.687 Y  42.695
G1 X  29.730 Y  42.631
G1 X  29.768 Y  42.564
G1 X  29.801 Y  42.494
G1 X  29.828 Y  42.422
G1 X  34.590 Y  28.136
G1 X  34.612 Y  28.059
G1 X  34.628 Y  27.980
G1 X  34.638 Y  27.900
G1 X  34.641 Y  27.820
G1 X  34.641 Y  18.296
G1 X  34.638 Y  18.216
G1 X  34.628 Y  18.136
G1 X  34.612 Y  18.057
G1 X  34.590 Y  17.980
G1 X  29.828 Y   3.694
G1 X  29.801 Y   3.622
G1 X  29.768 Y   3.552
G1 X  29.730 Y   3.484
G1 X  29.687 Y   3.420
G1 X  29.639 Y   3.360
G1 X  29.587 Y   3.303
G1 X  20.063 Y  -6.221
G1 X  20.006 Y  -6.273
G1 X  19.946 Y  -6.321
G1 X  19.881 Y  -6.364
G1 X  19.814 Y  -6.402
G1 X  19.744 Y  -6.435
G1 X  19.672 Y  -6.462
G1 X   5.386 Y -11.224
G1 X   5.309 Y -11.247
G1 X   5.230 Y -11.263
G1 X   5.150 Y -11.272
G1 X   5.070 Y -11.275
G1 X  -9.216 Y -11.275
G1 X  -9.296 Y -11.272
G1 X  -9.376 Y -11.263
G1 X  -9.455 Y -11.247
G1 X  -9.532 Y -11.224
G1 X -23.818 Y  -6.462
G1 X -23.890 Y  -6.435
G1 X -23.960 Y  -6.402
G1 X -24.027 Y  -6.364
G1 X -24.091 Y  -6.321
G1 X -24.152 Y  -6.273
G1 X -24.209 Y  -6.221
G1 X -28.970 Y  -1.459
G1 X -29.025 Y  -1.400
G1 X -29.075 Y  -1.336
G1 X -29.119 Y  -1.269
G1 X -29.158 Y  -1.199
G1 X -33.920 Y   8.325
F150
G1 Z  30.000
G0 Z 100.000 
M9 M5

(* SHAPE Nr: 1 *)
G0 X -18.501 Y  88.725
M3 M8
G0 Z  30.000 
G1 Z  25.000
F400
G1 X  19.561 Y  88.725
F150
G1 Z  30.000
G0 Z 100.000 
M9 M5
G0 X   0.000 Y   0.000
M2 (Program end)
