(Generated with: DXF2GCODE, Version: Py3.7.10 PyQt5.10.1, Date: $Date: Fri Oct 25 20:45:56 2019 +0200 $)
(Created from file: /home/lucas/6.dxf)
(Output format description: G-CODE for LinuxCNC)
(Time: Wed Jul 14 19:44:16 2021)
G21 (Units in millimeters)
G90 (Absolute programming)
G64 (Default cutting) G17 (XY plane) G40 (Cancel radius comp.) G49 (Cancel length comp.)
G0 Z 100.000 

(*** LAYER: 0 ***)
T1 M6
S6000

(* SHAPE Nr: 0 *)
G0 X  25.708 Y  93.016
M3 M8
G0 Z  30.000 
F150
G1 Z  30.000
F400
G1 X  21.132 Y 102.169
G1 X   7.393 Y 106.749
G1 X  -1.807 Y 106.749
G1 X -15.613 Y 102.147
G1 X -24.837 Y  88.311
G1 X -29.540 Y  64.793
G1 X -29.540 Y  41.205
G1 X -24.875 Y  22.546
G1 X -15.714 Y  13.385
G1 X  -1.807 Y   8.749
G1 X   2.631 Y   8.749
G1 X  16.539 Y  13.385
G1 X  25.729 Y  22.575
G1 X  30.365 Y  36.482
G1 X  30.365 Y  40.920
G1 X  25.729 Y  54.828
G1 X  16.539 Y  64.018
G1 X   2.631 Y  68.654
G1 X  -1.807 Y  68.654
G1 X -15.714 Y  64.018
G1 X -25.071 Y  54.661
F150
G1 Z  30.000
G0 Z 100.000 
M9 M5
G0 X   0.000 Y   0.000
M2 (Program end)