(Generated with: DXF2GCODE, Version: Py3.7.10 PyQt5.10.1, Date: $Date: Fri Oct 25 20:45:56 2019 +0200 $)
(Created from file: /home/lucas/h.dxf)
(Output format description: G-CODE for LinuxCNC)
(Time: Fri Jul 16 10:30:20 2021)
G21 (Units in millimeters)
G90 (Absolute programming)
G64 (Default cutting) G17 (XY plane) G40 (Cancel radius comp.) G49 (Cancel length comp.)
G0 Z 100.000 

(*** LAYER: 0 ***)
T1 M6
S6000

(* SHAPE Nr: 0 *)
G0 X   -8.144 Y   6.296
M3 M8
G0 Z  30.000 
F150
G1 Z  30.000
F100
G1 X  -8.144 Y   6.296
G1 X  -8.401 Y   6.467
G1 X  -8.653 Y   6.644
G1 X  -8.902 Y   6.827
G1 X  -9.147 Y   7.018
G1 X  -9.389 Y   7.215
G1 X  -9.625 Y   7.417
G1 X  -9.857 Y   7.624
G1 X -10.084 Y   7.838
G1 X -10.306 Y   8.056
G1 X -32.663 Y  30.413
G1 X -55.014 Y  52.764
G1 X -55.027 Y  52.777
G1 X -55.029 Y  52.778
G1 X -55.050 Y  52.798
G1 X -55.051 Y  52.800
G1 X -55.072 Y  52.820
G1 X -55.073 Y  52.821
G1 X -55.094 Y  52.841
G1 X -55.095 Y  52.842
G1 X -55.116 Y  52.862
G1 X -55.117 Y  52.864
G1 X -55.138 Y  52.884
G1 X -55.139 Y  52.885
G1 X -55.159 Y  52.905
G1 X -55.160 Y  52.906
G1 X -55.181 Y  52.927
G1 X -55.182 Y  52.928
G1 X -55.203 Y  52.948
G1 X -55.204 Y  52.949
G1 X -55.224 Y  52.969
G1 X -55.225 Y  52.970
G1 X -55.245 Y  52.990
G1 X -55.246 Y  52.991
G1 X -55.267 Y  53.012
G1 X -55.268 Y  53.013
G1 X -55.288 Y  53.033
G1 X -55.289 Y  53.034
G1 X -55.309 Y  53.054
G1 X -55.310 Y  53.055
G1 X -55.330 Y  53.075
G1 X -55.331 Y  53.076
G1 X -55.351 Y  53.096
G1 X -55.352 Y  53.097
G1 X -55.372 Y  53.117
G1 X -55.373 Y  53.118
G1 X -55.393 Y  53.138
G1 X -55.394 Y  53.139
G1 X -55.414 Y  53.159
G1 X -55.414 Y  53.160
G1 X -55.435 Y  53.180
G1 X -55.435 Y  53.181
G1 X -55.455 Y  53.201
G1 X -55.456 Y  53.202
G1 X -55.476 Y  53.222
G1 X -55.476 Y  53.223
G1 X -55.496 Y  53.243
G1 X -55.497 Y  53.244
G1 X -55.517 Y  53.264
G1 X -55.537 Y  53.285
G1 X -55.558 Y  53.306
G1 X -55.578 Y  53.326
G1 X -55.598 Y  53.347
G1 X -55.618 Y  53.367
G1 X -55.618 Y  53.368
G1 X -55.638 Y  53.388
G1 X -55.658 Y  53.409
G1 X -55.659 Y  53.409
G1 X -55.883 Y  53.640
G1 X -56.104 Y  53.872
G1 X -56.467 Y  54.260
G1 X -56.823 Y  54.653
G1 X -57.175 Y  55.051
G1 X -57.521 Y  55.453
G1 X -57.862 Y  55.860
G1 X -58.197 Y  56.272
G1 X -58.526 Y  56.688
G1 X -58.850 Y  57.108
G1 X -59.168 Y  57.533
G1 X -59.480 Y  57.962
G1 X -59.782 Y  58.389
G1 X -60.079 Y  58.820
G1 X -60.369 Y  59.255
G1 X -60.653 Y  59.694
G1 X -60.932 Y  60.136
G1 X -61.204 Y  60.583
G1 X -61.471 Y  61.033
G1 X -61.731 Y  61.486
G1 X -61.985 Y  61.943
G1 X -62.233 Y  62.404
G1 X -62.474 Y  62.868
G1 X -62.710 Y  63.335
G1 X -62.938 Y  63.805
G1 X -63.161 Y  64.278
G1 X -63.377 Y  64.754
G1 X -63.587 Y  65.233
G1 X -63.793 Y  65.722
G1 X -63.992 Y  66.214
G1 X -64.185 Y  66.708
G1 X -64.370 Y  67.205
G1 X -64.549 Y  67.705
G1 X -64.721 Y  68.206
G1 X -64.886 Y  68.711
G1 X -65.045 Y  69.217
G1 X -65.196 Y  69.725
G1 X -65.340 Y  70.236
G1 X -65.477 Y  70.748
G1 X -65.610 Y  71.274
G1 X -65.736 Y  71.802
G1 X -65.855 Y  72.331
G1 X -65.966 Y  72.862
G1 X -66.069 Y  73.394
G1 X -66.165 Y  73.928
G1 X -66.254 Y  74.462
G1 X -66.336 Y  74.999
G1 X -66.410 Y  75.536
G1 X -66.476 Y  76.074
G1 X -66.535 Y  76.613
G1 X -66.587 Y  77.153
G1 X -66.631 Y  77.693
G1 X -66.667 Y  78.234
G1 X -66.696 Y  78.776
G1 X -66.718 Y  79.318
G1 X -66.732 Y  79.860
G1 X -66.738 Y  80.369
G1 X -66.737 Y  80.878
G1 X -66.730 Y  81.386
G1 X -66.717 Y  81.895
G1 X -66.697 Y  82.404
G1 X -66.670 Y  82.912
G1 X -66.636 Y  83.420
G1 X -66.596 Y  83.927
G1 X -66.550 Y  84.434
G1 X -66.496 Y  84.940
G1 X -66.432 Y  85.484
G1 X -66.360 Y  86.026
G1 X -66.280 Y  86.568
G1 X -66.192 Y  87.108
G1 X -66.097 Y  87.647
G1 X -65.995 Y  88.185
G1 X -65.885 Y  88.721
G1 X -65.767 Y  89.255
G1 X -65.642 Y  89.788
G1 X -65.509 Y  90.319
G1 X -65.369 Y  90.848
G1 X -65.222 Y  91.375
G1 X -65.067 Y  91.900
G1 X -64.905 Y  92.423
G1 X -64.735 Y  92.944
G1 X -64.558 Y  93.461
G1 X -64.380 Y  93.960
G1 X -64.196 Y  94.456
G1 X -64.004 Y  94.949
G1 X -63.806 Y  95.439
G1 X -63.601 Y  95.927
G1 X -63.390 Y  96.412
G1 X -63.171 Y  96.894
G1 X -62.947 Y  97.373
G1 X -62.715 Y  97.849
G1 X -62.478 Y  98.321
G1 X -62.233 Y  98.791
G1 X -61.983 Y  99.257
G1 X -61.726 Y  99.719
G1 X -61.462 Y 100.178
G1 X -61.193 Y 100.633
G1 X -60.907 Y 101.101
G1 X -60.614 Y 101.564
G1 X -60.315 Y 102.024
G1 X -60.009 Y 102.479
G1 X -59.697 Y 102.930
G1 X -59.379 Y 103.376
G1 X -59.054 Y 103.818
G1 X -58.723 Y 104.255
G1 X -58.386 Y 104.687
G1 X -58.035 Y 105.124
G1 X -57.678 Y 105.556
G1 X -57.315 Y 105.983
G1 X -56.946 Y 106.405
G1 X -56.571 Y 106.821
G1 X -56.190 Y 107.232
G1 X -55.803 Y 107.638
G1 X -55.411 Y 108.038
G1 X -55.012 Y 108.432
G1 X -55.010 Y 108.434
G1 X -54.599 Y 108.830
G1 X -54.183 Y 109.219
G1 X -53.763 Y 109.604
G1 X -53.338 Y 109.984
G1 X -52.909 Y 110.359
G1 X -52.539 Y 110.674
G1 X -52.166 Y 110.984
G1 X -51.789 Y 111.289
G1 X -51.409 Y 111.590
G1 X -51.025 Y 111.887
G1 X -50.637 Y 112.178
G1 X -50.240 Y 112.469
G1 X -49.839 Y 112.754
G1 X -49.434 Y 113.033
G1 X -49.025 Y 113.307
G1 X -48.612 Y 113.575
G1 X -48.196 Y 113.837
G1 X -47.787 Y 114.085
G1 X -47.375 Y 114.327
G1 X -46.959 Y 114.563
G1 X -46.540 Y 114.792
G1 X -46.117 Y 115.015
G1 X -45.691 Y 115.232
G1 X -45.262 Y 115.442
G1 X -44.827 Y 115.646
G1 X -44.389 Y 115.843
G1 X -43.948 Y 116.033
G1 X -43.504 Y 116.216
G1 X -43.057 Y 116.391
G1 X -42.607 Y 116.559
G1 X -42.155 Y 116.720
G1 X -41.700 Y 116.874
G1 X -41.242 Y 117.020
G1 X -40.783 Y 117.159
G1 X -40.372 Y 117.276
G1 X -39.959 Y 117.387
G1 X -39.546 Y 117.493
G1 X -39.130 Y 117.593
G1 X -38.713 Y 117.687
G1 X -38.295 Y 117.775
G1 X -37.876 Y 117.858
G1 X -37.369 Y 117.950
G1 X -36.859 Y 118.034
G1 X -36.349 Y 118.111
G1 X -35.838 Y 118.180
G1 X -35.325 Y 118.240
G1 X -34.812 Y 118.293
G1 X -34.333 Y 118.335
G1 X -33.854 Y 118.372
G1 X -33.374 Y 118.402
G1 X -32.894 Y 118.426
G1 X -32.414 Y 118.444
G1 X -31.934 Y 118.456
G1 X -31.372 Y 118.462
G1 X -30.811 Y 118.462
G1 X -30.250 Y 118.453
G1 X -29.689 Y 118.438
G1 X -29.128 Y 118.415
G1 X -28.507 Y 118.382
G1 X -27.886 Y 118.341
G1 X -27.266 Y 118.292
G1 X -26.646 Y 118.236
G1 X -26.641 Y 118.235
G1 X -26.613 Y 118.232
G1 X -26.473 Y 118.214
G1 X -26.333 Y 118.194
G1 X -26.020 Y 118.141
G1 X -25.707 Y 118.082
G1 X -25.395 Y 118.016
G1 X -25.003 Y 117.925
G1 X -24.613 Y 117.827
G1 X -24.224 Y 117.722
G1 X -23.838 Y 117.610
G1 X -23.413 Y 117.478
G1 X -22.990 Y 117.339
G1 X -22.570 Y 117.193
G1 X -22.152 Y 117.040
G1 X -21.737 Y 116.879
G1 X -21.338 Y 116.718
G1 X -20.941 Y 116.550
G1 X -20.547 Y 116.377
G1 X -20.156 Y 116.198
G1 X -19.767 Y 116.013
G1 X -19.381 Y 115.822
G1 X -18.998 Y 115.625
G1 X -18.601 Y 115.414
G1 X -18.206 Y 115.197
G1 X -17.815 Y 114.974
G1 X -17.427 Y 114.746
G1 X -17.043 Y 114.512
G1 X -16.662 Y 114.272
G1 X -16.284 Y 114.027
G1 X -15.910 Y 113.777
G1 X -15.535 Y 113.518
G1 X -15.164 Y 113.255
G1 X -14.797 Y 112.986
G1 X -14.433 Y 112.712
G1 X -14.073 Y 112.433
G1 X -13.717 Y 112.149
G1 X -13.365 Y 111.860
G1 X -13.017 Y 111.567
G1 X -12.623 Y 111.224
G1 X -12.234 Y 110.876
G1 X -11.850 Y 110.522
G1 X -11.471 Y 110.163
G1 X -11.098 Y 109.797
G1 X -10.730 Y 109.427
G1 X -10.368 Y 109.051
G1 X -10.043 Y 108.704
G1 X  -9.723 Y 108.354
G1 X  -9.408 Y 108.000
G1 X  -9.096 Y 107.641
G1 X  -8.790 Y 107.279
G1 X  -8.488 Y 106.913
G1 X  -8.190 Y 106.543
G1 X  -7.875 Y 106.141
G1 X  -7.566 Y 105.736
G1 X  -7.261 Y 105.326
G1 X  -6.962 Y 104.913
G1 X  -6.668 Y 104.496
G1 X  -6.379 Y 104.076
G1 X  -6.095 Y 103.651
G1 X  -5.770 Y 103.151
G1 X  -5.451 Y 102.645
G1 X  -5.139 Y 102.136
G1 X  -4.833 Y 101.622
G1 X  -4.535 Y 101.105
G1 X  -4.244 Y 100.583
G1 X  -3.971 Y 100.081
G1 X  -3.705 Y  99.576
G1 X  -3.444 Y  99.068
G1 X  -3.190 Y  98.556
G1 X  -2.941 Y  98.042
G1 X  -2.698 Y  97.525
G1 X  -2.435 Y  96.946
G1 X  -2.178 Y  96.363
G1 X  -1.928 Y  95.778
G1 X  -1.685 Y  95.190
G1 X  -1.449 Y  94.599
G1 X  -1.220 Y  94.005
G1 X  -1.001 Y  93.418
G1 X  -0.788 Y  92.830
G1 X  -0.581 Y  92.239
G1 X  -0.380 Y  91.646
G1 X  -0.185 Y  91.051
G1 X   0.003 Y  90.454
G1 X   0.131 Y  90.037
G1 X   0.191 Y  90.164
G1 X   0.486 Y  90.785
G1 X   0.787 Y  91.402
G1 X   1.094 Y  92.016
G1 X   1.407 Y  92.628
G1 X   1.725 Y  93.236
G1 X   2.049 Y  93.842
G1 X   2.381 Y  94.445
G1 X   2.718 Y  95.045
G1 X   3.063 Y  95.641
G1 X   3.413 Y  96.234
G1 X   3.770 Y  96.822
G1 X   4.134 Y  97.407
G1 X   4.482 Y  97.955
G1 X   4.837 Y  98.498
G1 X   5.198 Y  99.037
G1 X   5.565 Y  99.572
G1 X   5.939 Y 100.103
G1 X   6.318 Y 100.630
G1 X   6.682 Y 101.123
G1 X   7.052 Y 101.612
G1 X   7.428 Y 102.096
G1 X   7.810 Y 102.576
G1 X   8.198 Y 103.051
G1 X   8.591 Y 103.522
G1 X   8.969 Y 103.963
G1 X   9.352 Y 104.399
G1 X   9.741 Y 104.830
G1 X  10.136 Y 105.256
G1 X  10.535 Y 105.677
G1 X  10.940 Y 106.093
G1 X  11.330 Y 106.484
G1 X  11.726 Y 106.869
G1 X  12.126 Y 107.249
G1 X  12.531 Y 107.623
G1 X  12.941 Y 107.993
G1 X  13.355 Y 108.356
G1 X  13.760 Y 108.701
G1 X  14.168 Y 109.041
G1 X  14.582 Y 109.374
G1 X  15.000 Y 109.702
G1 X  15.422 Y 110.024
G1 X  15.849 Y 110.341
G1 X  16.255 Y 110.633
G1 X  16.666 Y 110.920
G1 X  17.080 Y 111.201
G1 X  17.498 Y 111.476
G1 X  17.920 Y 111.745
G1 X  18.346 Y 112.008
G1 X  18.775 Y 112.266
G1 X  19.213 Y 112.519
G1 X  19.654 Y 112.766
G1 X  20.100 Y 113.006
G1 X  20.548 Y 113.240
G1 X  21.000 Y 113.466
G1 X  21.456 Y 113.686
G1 X  21.915 Y 113.899
G1 X  22.377 Y 114.105
G1 X  22.797 Y 114.284
G1 X  23.219 Y 114.457
G1 X  23.644 Y 114.625
G1 X  24.071 Y 114.786
G1 X  24.500 Y 114.940
G1 X  24.932 Y 115.089
G1 X  25.366 Y 115.231
G1 X  25.802 Y 115.366
G1 X  26.239 Y 115.496
G1 X  26.679 Y 115.618
G1 X  27.115 Y 115.733
G1 X  27.553 Y 115.842
G1 X  27.993 Y 115.944
G1 X  28.434 Y 116.039
G1 X  28.876 Y 116.127
G1 X  29.320 Y 116.209
G1 X  29.765 Y 116.284
G1 X  30.211 Y 116.352
G1 X  30.658 Y 116.414
G1 X  31.105 Y 116.468
G1 X  31.554 Y 116.516
G1 X  32.003 Y 116.558
G1 X  32.483 Y 116.594
G1 X  32.963 Y 116.622
G1 X  33.444 Y 116.642
G1 X  33.924 Y 116.655
G1 X  34.405 Y 116.659
G1 X  34.886 Y 116.655
G1 X  35.367 Y 116.644
G1 X  35.848 Y 116.624
G1 X  36.328 Y 116.597
G1 X  36.807 Y 116.561
G1 X  37.286 Y 116.517
G1 X  37.765 Y 116.466
G1 X  38.242 Y 116.406
G1 X  38.680 Y 116.345
G1 X  39.118 Y 116.276
G1 X  39.554 Y 116.200
G1 X  39.990 Y 116.118
G1 X  40.423 Y 116.028
G1 X  40.856 Y 115.932
G1 X  41.286 Y 115.829
G1 X  41.715 Y 115.719
G1 X  42.143 Y 115.602
G1 X  42.568 Y 115.479
G1 X  42.991 Y 115.349
G1 X  43.405 Y 115.215
G1 X  43.817 Y 115.073
G1 X  44.226 Y 114.926
G1 X  44.633 Y 114.771
G1 X  45.038 Y 114.610
G1 X  45.439 Y 114.442
G1 X  45.838 Y 114.268
G1 X  46.234 Y 114.088
G1 X  46.627 Y 113.900
G1 X  46.990 Y 113.720
G1 X  47.350 Y 113.534
G1 X  47.707 Y 113.342
G1 X  48.061 Y 113.145
G1 X  48.412 Y 112.941
G1 X  48.759 Y 112.732
G1 X  49.103 Y 112.517
G1 X  49.443 Y 112.297
G1 X  49.754 Y 112.088
G1 X  50.063 Y 111.874
G1 X  50.367 Y 111.654
G1 X  50.668 Y 111.430
G1 X  50.965 Y 111.201
G1 X  51.258 Y 110.967
G1 X  51.548 Y 110.728
G1 X  51.845 Y 110.473
G1 X  52.138 Y 110.213
G1 X  52.425 Y 109.947
G1 X  52.708 Y 109.676
G1 X  52.985 Y 109.400
G1 X  53.257 Y 109.118
G1 X  53.484 Y 108.875
G1 X  53.706 Y 108.628
G1 X  53.924 Y 108.377
G1 X  53.944 Y 108.358
G1 X  53.946 Y 108.356
G1 X  54.004 Y 108.300
G1 X  54.006 Y 108.298
G1 X  54.065 Y 108.242
G1 X  54.066 Y 108.240
G1 X  54.125 Y 108.184
G1 X  54.126 Y 108.182
G1 X  54.184 Y 108.126
G1 X  54.186 Y 108.124
G1 X  54.244 Y 108.068
G1 X  54.246 Y 108.066
G1 X  54.304 Y 108.009
G1 X  54.305 Y 108.007
G1 X  54.363 Y 107.950
G1 X  54.365 Y 107.949
G1 X  54.422 Y 107.892
G1 X  54.424 Y 107.890
G1 X  54.481 Y 107.833
G1 X  54.483 Y 107.831
G1 X  54.540 Y 107.774
G1 X  54.542 Y 107.772
G1 X  54.599 Y 107.714
G1 X  54.601 Y 107.712
G1 X  54.658 Y 107.655
G1 X  54.660 Y 107.653
G1 X  54.716 Y 107.595
G1 X  54.718 Y 107.593
G1 X  54.775 Y 107.536
G1 X  54.776 Y 107.534
G1 X  54.833 Y 107.476
G1 X  54.835 Y 107.474
G1 X  54.891 Y 107.416
G1 X  54.893 Y 107.414
G1 X  54.949 Y 107.355
G1 X  54.951 Y 107.354
G1 X  55.007 Y 107.295
G1 X  55.009 Y 107.293
G1 X  55.064 Y 107.235
G1 X  55.066 Y 107.233
G1 X  55.122 Y 107.174
G1 X  55.124 Y 107.172
G1 X  55.179 Y 107.113
G1 X  55.181 Y 107.111
G1 X  55.237 Y 107.052
G1 X  55.238 Y 107.050
G1 X  55.294 Y 106.991
G1 X  55.295 Y 106.989
G1 X  55.351 Y 106.930
G1 X  55.352 Y 106.928
G1 X  55.407 Y 106.868
G1 X  55.409 Y 106.867
G1 X  55.464 Y 106.807
G1 X  55.466 Y 106.805
G1 X  55.520 Y 106.745
G1 X  55.522 Y 106.743
G1 X  55.577 Y 106.683
G1 X  55.578 Y 106.681
G1 X  55.633 Y 106.621
G1 X  55.635 Y 106.619
G1 X  55.689 Y 106.559
G1 X  55.899 Y 106.325
G1 X  56.107 Y 106.089
G1 X  56.446 Y 105.695
G1 X  56.780 Y 105.296
G1 X  57.108 Y 104.894
G1 X  57.431 Y 104.486
G1 X  57.748 Y 104.075
G1 X  58.060 Y 103.659
G1 X  58.366 Y 103.239
G1 X  58.667 Y 102.815
G1 X  58.961 Y 102.387
G1 X  59.250 Y 101.955
G1 X  59.539 Y 101.509
G1 X  59.822 Y 101.060
G1 X  60.099 Y 100.606
G1 X  60.369 Y 100.149
G1 X  60.632 Y  99.688
G1 X  60.889 Y  99.224
G1 X  61.140 Y  98.755
G1 X  61.384 Y  98.284
G1 X  61.621 Y  97.808
G1 X  61.852 Y  97.330
G1 X  62.076 Y  96.849
G1 X  62.293 Y  96.364
G1 X  62.503 Y  95.876
G1 X  62.706 Y  95.386
G1 X  62.903 Y  94.892
G1 X  63.092 Y  94.396
G1 X  63.275 Y  93.897
G1 X  63.450 Y  93.398
G1 X  63.617 Y  92.897
G1 X  63.778 Y  92.393
G1 X  63.932 Y  91.886
G1 X  64.079 Y  91.378
G1 X  64.218 Y  90.868
G1 X  64.351 Y  90.356
G1 X  64.476 Y  89.842
G1 X  64.595 Y  89.326
G1 X  64.706 Y  88.809
G1 X  64.809 Y  88.290
G1 X  64.906 Y  87.770
G1 X  64.998 Y  87.232
G1 X  65.082 Y  86.693
G1 X  65.159 Y  86.153
G1 X  65.228 Y  85.612
G1 X  65.289 Y  85.070
G1 X  65.342 Y  84.527
G1 X  65.388 Y  83.984
G1 X  65.426 Y  83.439
G1 X  65.456 Y  82.895
G1 X  65.479 Y  82.350
G1 X  65.494 Y  81.804
G1 X  65.501 Y  81.259
G1 X  65.500 Y  80.713
G1 X  65.491 Y  80.168
G1 X  65.475 Y  79.623
G1 X  65.451 Y  79.078
G1 X  65.419 Y  78.533
G1 X  65.379 Y  77.989
G1 X  65.332 Y  77.445
G1 X  65.277 Y  76.903
G1 X  65.214 Y  76.361
G1 X  65.144 Y  75.820
G1 X  65.066 Y  75.280
G1 X  64.981 Y  74.751
G1 X  64.889 Y  74.223
G1 X  64.790 Y  73.696
G1 X  64.684 Y  73.170
G1 X  64.570 Y  72.647
G1 X  64.449 Y  72.125
G1 X  64.320 Y  71.604
G1 X  64.184 Y  71.086
G1 X  64.041 Y  70.569
G1 X  63.891 Y  70.055
G1 X  63.733 Y  69.542
G1 X  63.568 Y  69.032
G1 X  63.396 Y  68.525
G1 X  63.217 Y  68.019
G1 X  63.031 Y  67.517
G1 X  62.838 Y  67.017
G1 X  62.644 Y  66.534
G1 X  62.444 Y  66.055
G1 X  62.236 Y  65.578
G1 X  62.023 Y  65.105
G1 X  61.802 Y  64.634
G1 X  61.576 Y  64.166
G1 X  61.343 Y  63.701
G1 X  61.103 Y  63.240
G1 X  60.858 Y  62.782
G1 X  60.606 Y  62.328
G1 X  60.347 Y  61.877
G1 X  60.083 Y  61.429
G1 X  59.813 Y  60.985
G1 X  59.536 Y  60.545
G1 X  59.260 Y  60.120
G1 X  58.979 Y  59.698
G1 X  58.692 Y  59.279
G1 X  58.399 Y  58.865
G1 X  58.101 Y  58.455
G1 X  57.797 Y  58.048
G1 X  57.488 Y  57.646
G1 X  57.174 Y  57.248
G1 X  56.854 Y  56.854
G1 X  56.529 Y  56.465
G1 X  56.192 Y  56.072
G1 X  55.850 Y  55.684
G1 X  55.503 Y  55.301
G1 X  55.151 Y  54.922
G1 X  54.794 Y  54.548
G1 X  54.432 Y  54.179
G1 X  54.065 Y  53.815
G1 X  53.693 Y  53.456
G1 X  53.317 Y  53.102
G1 X  52.935 Y  52.753
G1 X  30.595 Y  30.413
G1 X   8.160 Y   7.978
G1 X   8.157 Y   7.975
G1 X   7.934 Y   7.759
G1 X   7.706 Y   7.548
G1 X   7.473 Y   7.343
G1 X   7.235 Y   7.143
G1 X   6.992 Y   6.949
G1 X   6.745 Y   6.761
G1 X   6.496 Y   6.580
G1 X   6.242 Y   6.405
G1 X   5.984 Y   6.236
G1 X   5.723 Y   6.073
G1 X   5.457 Y   5.917
G1 X   5.188 Y   5.767
G1 X   4.915 Y   5.623
G1 X   4.639 Y   5.486
G1 X   4.360 Y   5.356
G1 X   4.078 Y   5.232
G1 X   3.793 Y   5.115
G1 X   3.505 Y   5.004
G1 X   3.215 Y   4.901
G1 X   2.922 Y   4.804
G1 X   2.627 Y   4.715
G1 X   -0.627 Y   0.715
G1 X   -2.627 Y   -2.715
G1 X   -4.627 Y   -4.715
G1 X   -6.627 Y   -6.715
G1 X   -8.627 Y   -8.715
F150
G1 Z  30.000
G0 Z 100.000 
M9 M5
G0 X   0.000 Y   0.000
M2 (Program end)
